svg-css/wifi.svg

<?xml version="1.0" encoding="UTF-8"?>
<svg width="24" height="24" viewBox="0 0 24 24" xmlns="http://www.w3.org/2000/svg">
 <style>.spinner_iMlZ{animation:spinner_BN13 1.451s step-end infinite}.spinner_bpzn{animation:spinner_gk1y 1.451s step-end infinite}.spinner_SwOY{animation:spinner_a9rS 1.451s step-end infinite}@keyframes spinner_BN13{0%,86.22%,100%{opacity:0}8.61%,86.15%{opacity:1}}@keyframes spinner_gk1y{0%,8.61%,86.22%,100%{opacity:0}25.84%,86.15%{opacity:1}}@keyframes spinner_a9rS{0%,25.84%,86.22%,100%{opacity:0}43.07%,86.15%{opacity:1}}</style>
 <path class="spinner_iMlZ" d="m12 21 3.6-4.8c-1-0.75-2.25-1.2-3.6-1.2s-2.6 0.45-3.6 1.2l3.6 4.8" opacity="0"/>
 <path class="spinner_iMlZ spinner_bpzn" d="m12 9c-2.7 0-5.19 0.89-7.2 2.4l1.8 2.4c1.5-1.13 3.37-1.8 5.4-1.8s3.9 0.67 5.4 1.8l1.8-2.4c-2.01-1.51-4.5-2.4-7.2-2.4z" opacity="0"/>
 <path class="spinner_iMlZ spinner_SwOY" d="m12 3c-4.05 0-7.79 1.34-10.8 3.6l1.8 2.4c2.5-1.88 5.62-3 9-3s6.5 1.12 9 3l1.8-2.4c-3.01-2.26-6.75-3.6-10.8-3.6" opacity="0"/>
</svg>

<svg width="24" height="24" viewBox="0 0 24 24" xmlns="http://www.w3.org/2000/svg"><style>.spinner_iMlZ{animation:spinner_BN13 1.451s step-end infinite}.spinner_bpzn{animation:spinner_gk1y 1.451s step-end infinite}.spinner_SwOY{animation:spinner_a9rS 1.451s step-end infinite}@keyframes spinner_BN13{0%,86.22%,100%{opacity:0}8.61%,86.15%{opacity:1}}@keyframes spinner_gk1y{0%,8.61%,86.22%,100%{opacity:0}25.84%,86.15%{opacity:1}}@keyframes spinner_a9rS{0%,25.84%,86.22%,100%{opacity:0}43.07%,86.15%{opacity:1}}</style><path class="spinner_iMlZ" d="M12,21L15.6,16.2C14.6,15.45 13.35,15 12,15C10.65,15 9.4,15.45 8.4,16.2L12,21" opacity="0"/><path class="spinner_iMlZ spinner_bpzn" d="M12,9C9.3,9 6.81,9.89 4.8,11.4L6.6,13.8C8.1,12.67 9.97,12 12,12C14.03,12 15.9,12.67 17.4,13.8L19.2,11.4C17.19,9.89 14.7,9 12,9Z" opacity="0"/><path class="spinner_iMlZ spinner_SwOY" d="M12,3C7.95,3 4.21,4.34 1.2,6.6L3,9C5.5,7.12 8.62,6 12,6C15.38,6 18.5,7.12 21,9L22.8,6.6C19.79,4.34 16.05,3 12,3" opacity="0"/></svg>
